images/icon (7).svg

<svg width="41" height="40" viewBox="0 0 41 40" fill="none" xmlns="http://www.w3.org/2000/svg">
<g clip-path="url(#clip0_2230_25)">
<rect x="0.5" y="16.6667" width="23.3333" height="23.3333" fill="#7595FD"/>
<path d="M30.5 26.6667H27.1667V25H13.8333V26.6667H10.5V25H3.83334V33.3333H37.1667V25H30.5V26.6667ZM33.8333 13.3333H28.8333V9.99999C28.8333 8.16666 27.3333 6.66666 25.5 6.66666H15.5C13.6667 6.66666 12.1667 8.16666 12.1667 9.99999V13.3333H7.16668C5.33334 13.3333 3.83334 14.8333 3.83334 16.6667V23.3333H10.5V20H13.8333V23.3333H27.1667V20H30.5V23.3333H37.1667V16.6667C37.1667 14.8333 35.6667 13.3333 33.8333 13.3333ZM25.5 13.3333H15.5V9.99999H25.5V13.3333Z" fill="white"/>
</g>
<defs>
<clipPath id="clip0_2230_25">
<rect width="40" height="40" fill="white" transform="translate(0.5)"/>
</clipPath>
</defs>
</svg>

<svg width="41" height="40" fill="none" xmlns="http://www.w3.org/2000/svg"><g clip-path="url(#clip0_2230_25)"><path fill="#7595FD" d="M.5 16.667h23.333V40H.5z"/><path d="M30.5 26.667h-3.333V25H13.833v1.667H10.5V25H3.833v8.333h33.334V25H30.5v1.667zm3.333-13.334h-5V10c0-1.833-1.5-3.333-3.333-3.333h-10A3.343 3.343 0 0012.167 10v3.333h-5a3.343 3.343 0 00-3.334 3.334v6.666H10.5V20h3.333v3.333h13.334V20H30.5v3.333h6.667v-6.666c0-1.834-1.5-3.334-3.334-3.334zm-8.333 0h-10V10h10v3.333z" fill="#fff"/></g><defs><clipPath id="clip0_2230_25"><path fill="#fff" transform="translate(.5)" d="M0 0h40v40H0z"/></clipPath></defs></svg>
